svgs/mini_metro.svg

<svg viewBox="0 0 192 192" xml:space="preserve" style="fill-rule:evenodd;clip-rule:evenodd;stroke-linejoin:round;stroke-miterlimit:2" xmlns="http://www.w3.org/2000/svg"><path d="M2023.02 269.91a42.28 42.28 0 0 0-13.02-4.06V234c0-3.311-2.69-6-6-6s-6 2.689-6 6v31.85c-4.62.653-9 2.048-13.02 4.06V234c0-3.311-2.69-6-6-6s-6 2.689-6 6v44.856c-7.16 7.62-11.55 17.873-11.55 29.144 0 21.458 15.91 39.229 36.57 42.15V382c0 3.311 2.69 6 6 6s6-2.689 6-6v-22.085l26.33 26.328a5.998 5.998 0 0 0 8.48 0 6.007 6.007 0 0 0 0-8.486l-28.88-28.884a42.315 42.315 0 0 0 10.46-4.67l42.04 42.04c2.35 2.341 6.15 2.341 8.49 0a6.007 6.007 0 0 0 0-8.486l-41.29-41.283c6.8-7.545 10.94-17.53 10.94-28.474 0-11.271-4.39-21.524-11.55-29.144V234c0-3.311-2.69-6-6-6s-6 2.689-6 6v35.91Zm.34 61.74c6.84-5.61 11.21-14.124 11.21-23.65 0-16.872-13.7-30.57-30.57-30.57s-30.57 13.698-30.57 30.57 13.7 30.57 30.57 30.57c7.26 0 13.94-2.539 19.18-6.776.06-.049.12-.098.18-.144Z" style="fill-rule:evenodd;clip-rule:evenodd;stroke-linejoin:round;stroke-miterlimit:2" transform="translate(-1908 -212)"/></svg>

<?xml version="1.0" encoding="UTF-8" standalone="no"?>
<svg
   width="100%"
   height="100%"
   viewBox="0 0 192 192"
   version="1.1"
   xml:space="preserve"
   style="fill-rule:evenodd;clip-rule:evenodd;stroke-linejoin:round;stroke-miterlimit:2;"
   id="svg1853"
   sodipodi:docname="mini_metro.svg"
   inkscape:version="1.2.1 (9c6d41e410, 2022-07-14)"
   xmlns:inkscape="http://www.inkscape.org/namespaces/inkscape"
   xmlns:sodipodi="http://sodipodi.sourceforge.net/DTD/sodipodi-0.dtd"
   xmlns="http://www.w3.org/2000/svg"
   xmlns:svg="http://www.w3.org/2000/svg"><defs
   id="defs1857" /><sodipodi:namedview
   id="namedview1855"
   pagecolor="#ffffff"
   bordercolor="#000000"
   borderopacity="0.25"
   inkscape:showpageshadow="2"
   inkscape:pageopacity="0.0"
   inkscape:pagecheckerboard="0"
   inkscape:deskcolor="#d1d1d1"
   showgrid="false"
   inkscape:zoom="5.3489583"
   inkscape:cx="96.093476"
   inkscape:cy="95.906524"
   inkscape:window-width="1274"
   inkscape:window-height="1303"
   inkscape:window-x="1282"
   inkscape:window-y="36"
   inkscape:window-maximized="0"
   inkscape:current-layer="svg1853" />
    <path
   d="M2023.02,269.91C2019,267.898 2014.62,266.503 2010,265.85L2010,234C2010,230.689 2007.31,228 2004,228C2000.69,228 1998,230.689 1998,234L1998,265.85C1993.38,266.503 1989,267.898 1984.98,269.91L1984.98,234C1984.98,230.689 1982.29,228 1978.98,228C1975.67,228 1972.98,230.689 1972.98,234L1972.98,278.856C1965.82,286.476 1961.43,296.729 1961.43,308C1961.43,329.458 1977.34,347.229 1998,350.15L1998,382C1998,385.311 2000.69,388 2004,388C2007.31,388 2010,385.311 2010,382L2010,359.915L2036.33,386.243C2038.67,388.584 2042.47,388.584 2044.81,386.243C2047.15,383.901 2047.15,380.099 2044.81,377.757L2015.93,348.873C2019.65,347.786 2023.17,346.204 2026.39,344.203L2068.43,386.243C2070.78,388.584 2074.58,388.584 2076.92,386.243C2079.26,383.901 2079.26,380.099 2076.92,377.757L2035.63,336.474C2042.43,328.929 2046.57,318.944 2046.57,308C2046.57,296.729 2042.18,286.476 2035.02,278.856L2035.02,234C2035.02,230.689 2032.33,228 2029.02,228C2025.71,228 2023.02,230.689 2023.02,234L2023.02,269.91ZM2023.36,331.65C2030.2,326.04 2034.57,317.526 2034.57,308C2034.57,291.128 2020.87,277.43 2004,277.43C1987.13,277.43 1973.43,291.128 1973.43,308C1973.43,324.872 1987.13,338.57 2004,338.57C2011.26,338.57 2017.94,336.031 2023.18,331.794C2023.24,331.745 2023.3,331.696 2023.36,331.65Z"
   id="path1847"
   style="fill-rule:evenodd;clip-rule:evenodd;stroke-linejoin:round;stroke-miterlimit:2"
   transform="translate(-1908,-212)"
   inkscape:label="mini_metro" />
</svg>
